X: 28202
T: Mrs. Chisholm
R: strathspey
M: 4/4
K: Amajor
c|A<A{/d}c>A B<FF>B|A<A{/d}c>A eA{/d}c<A|d>B{/d}c>A B>AF>B|A>FE>C A,2A,:|
(f/g/)|{/g}a>ef>c B>A F^f/g/|{/g}a>ef>c ea {/f}ed/c/|{/c}d>B{/d}c>A B>A^F>B|A>FE>C A,2 A,f/g/|
{/g}a>ef>c B>A F^f/g/|{/g}a>ef>c ea {/f}e/d/c|{/c}d<f c<a B>A F>B|A>FE>C A,2A,||

